.local/share/icons/Gruvbox-Plus-Dark/apps/16/pureref.svg

<svg xmlns="http://www.w3.org/2000/svg" style="isolation:isolate" width="16" height="16" viewBox="0 0 16 16">
   <defs>
      <style id="current-color-scheme" type="text/css">
         .ColorScheme-Text {
            color: #ebdbb2;
         }

         .ColorScheme-Highlight {
            color: #458588;
         }
      </style>
      <linearGradient id="arrongin" x1="0%" x2="0%" y1="0%" y2="100%">
         <stop offset="0%" style="stop-color:#d79921; stop-opacity:1" />
         <stop offset="100%" style="stop-color:#b57614; stop-opacity:1" />
      </linearGradient>
      <linearGradient id="aurora" x1="0%" x2="0%" y1="0%" y2="100%">
         <stop offset="0%" style="stop-color:#83a598; stop-opacity:1" />
         <stop offset="100%" style="stop-color:#b16286; stop-opacity:1" />
      </linearGradient>
      <linearGradient id="fitdance" x1="0%" x2="0%" y1="0%" y2="100%">
         <stop offset="0%" style="stop-color:#8ec07c; stop-opacity:1" />
         <stop offset="100%" style="stop-color:#458588; stop-opacity:1" />
      </linearGradient>
      <linearGradient id="oomox" x1="0%" x2="0%" y1="0%" y2="100%">
         <stop offset="0%" style="stop-color:#458588; stop-opacity:1" />
         <stop offset="100%" style="stop-color:#928374; stop-opacity:1" />
      </linearGradient>
      <linearGradient id="rainblue" x1="0%" x2="0%" y1="0%" y2="100%">
         <stop offset="0%" style="stop-color:#b8bb26; stop-opacity:1" />
         <stop offset="100%" style="stop-color:#076678; stop-opacity:1" />
      </linearGradient>
      <linearGradient id="sunrise" x1="0%" x2="0%" y1="0%" y2="100%">
         <stop offset="0%" style="stop-color: #fe8019; stop-opacity:1" />
         <stop offset="100%" style="stop-color: #fabd2f; stop-opacity:1" />
      </linearGradient>
      <linearGradient id="telinkrin" x1="0%" x2="0%" y1="0%" y2="100%">
         <stop offset="0%" style="stop-color: #83a598; stop-opacity:1" />
         <stop offset="100%" style="stop-color: #83a598; stop-opacity:1" />
      </linearGradient>
      <linearGradient id="60spsycho" x1="0%" x2="0%" y1="0%" y2="100%">
         <stop offset="0%" style="stop-color: #fb4934; stop-opacity:1" />
         <stop offset="25%" style="stop-color: #fabd2f; stop-opacity:1" />
         <stop offset="50%" style="stop-color: #fe8019; stop-opacity:1" />
         <stop offset="100%" style="stop-color: #689d6a; stop-opacity:1" />
      </linearGradient>
      <linearGradient id="90ssummer" x1="0%" x2="0%" y1="0%" y2="100%">
         <stop offset="0%" style="stop-color: #b16286; stop-opacity:1" />
         <stop offset="20%" style="stop-color: #8ec07c; stop-opacity:1" />
         <stop offset="50%" style="stop-color: #fabd2f; stop-opacity:1" />
         <stop offset="100%" style="stop-color: #458588; stop-opacity:1" />
      </linearGradient>
      <linearGradient id="cyberneon" x1="0%" x2="0%" y1="0%" y2="100%">
         <stop offset="0" style="stop-color:#83a598; stop-opacity:1" />
         <stop offset="1" style="stop-color:#b16286; stop-opacity:1" />
      </linearGradient>
   </defs>
   <path style="fill:currentColor" class="ColorScheme-Text"
      d="m 7.5627493,1.0025221 c -3.2205895,0 -5.8312922,2.6105189 -5.8312922,5.8311085 v 8.1638474 h 4.0819233 v -2.600206 c 0.5522175,0.173479 1.139713,0.267651 1.7493689,0.267651 0.5329742,0 1.0468955,-0.07777 1.5373033,-0.211884 l 2.5444354,2.544439 2.624055,-2.624055 -2.045455,-2.04564 c 0.732111,-0.9743982 1.170769,-2.1815425 1.170769,-3.4941524 0,-3.2205897 -2.61052,-5.8311085 -5.8311077,-5.8311085 z M 7.4442413,2.403522 A 4.6649847,4.6649847 0 0 1 12.109349,7.068446 4.6649847,4.6649847 0 0 1 7.4442413,11.733555 4.6649847,4.6649847 0 0 1 4.5286867,10.704589 v 3.361334 H 2.7793177 V 7.068446 A 4.6649847,4.6649847 0 0 1 7.4442413,2.403522 Z m -0.02385,1.7493688 A 2.9156155,2.9156155 0 0 0 4.5286849,7.068446 2.9156155,2.9156155 0 0 0 7.4442401,9.9841835 2.9156155,2.9156155 0 0 0 10.359977,7.068446 2.9156155,2.9156155 0 0 0 7.4442401,4.1528908 a 2.9156155,2.9156155 0 0 0 -0.023848,0 z" />
</svg>

<svg width="16" height="16" version="1.1" xmlns="http://www.w3.org/2000/svg">
  <defs>
    <style id="current-color-scheme" type="text/css">.ColorScheme-Text { color:#ebdbb2; } .ColorScheme-Highlight { color:#458588; }</style>
  </defs>
  <path class="ColorScheme-Text" d="m1.731 6.834v8.164h4.082v-2.6c0.5522 0.1735 1.14 0.2676 1.749 0.2676 0.533 0 1.047-0.07777 1.537-0.2119l2.544 2.544 2.624-2.624-2.046-2.046c0.7321-0.9744 1.171-2.182 1.171-3.494 0-3.221-2.61-5.831-5.831-5.831s-5.831 2.611-5.831 5.831zm10.38 0.2348c5.5e-5 2.576-2.089 4.665-4.665 4.665-1.061-0.0016-2.089-0.3645-2.916-1.029v3.361h-1.749v-6.998c5.52e-5 -2.576 2.089-4.665 4.665-4.665 2.576-5.2e-6 4.665 2.089 4.665 4.665zm-4.689-2.916c-1.601 0.01312-2.892 1.315-2.892 2.916-5.52e-5 1.61 1.305 2.916 2.916 2.916 1.61 5.52e-5 2.916-1.305 2.916-2.916 0-1.61-1.305-2.916-2.916-2.916-0.00795-3.25e-5 -0.0159-3.25e-5 -0.02385 0z" fill="currentColor"/>
</svg>
